svg/emoji_u27a1.svg

<svg enable-background="new 0 0 128 128" viewBox="0 0 128 128" xmlns="http://www.w3.org/2000/svg"><linearGradient id="a" x1="64" x2="64" y1="4.25" y2="124.41" gradientUnits="userSpaceOnUse"><stop stop-color="#40C4FF" offset="0"/><stop stop-color="#2DB5F9" offset=".3517"/><stop stop-color="#0091EA" offset="1"/></linearGradient><path d="m116 124h-104c-4.42 0-8-3.58-8-8v-104c0-4.42 3.58-8 8-8h104c4.42 0 8 3.58 8 8v104c0 4.42-3.58 8-8 8z" fill="url(#a)"/><g opacity=".2"><path d="m116 7c2.76 0 5 2.24 5 5v104c0 2.76-2.24 5-5 5h-104c-2.76 0-5-2.24-5-5v-104c0-2.76 2.24-5 5-5h104m0-3h-104c-4.42 0-8 3.58-8 8v104c0 4.42 3.58 8 8 8h104c4.42 0 8-3.58 8-8v-104c0-4.42-3.58-8-8-8z" fill="#424242"/></g><g opacity=".2"><path d="m78.02 36c0.9 0 1.82 0.31 2.61 1l24 23.99c1.82 1.59 1.82 4.43 0 6.02l-24 23.99c-0.79 0.69-1.71 1-2.61 1-2.06 0-4.02-1.62-4.02-4.01v-13.99c0-1.1-0.9-2-2-2h-46c-2.21 0-4-1.79-4-4v-8c0-2.21 1.79-4 4-4h46c1.1 0 2-0.9 2-2v-13.99c0-2.39 1.96-4.01 4.02-4.01m0-3c-3.87 0-7.02 3.14-7.02 7.01v12.99h-45c-3.86 0-7 3.14-7 7v8c0 3.86 3.14 7 7 7h45v12.99c0 3.86 3.15 7.01 7.02 7.01 1.68 0 3.3-0.62 4.59-1.74l0.14-0.14 23.94-23.93c1.47-1.33 2.31-3.21 2.31-5.19s-0.84-3.87-2.31-5.19l-24.07-24.07c-1.29-1.12-2.92-1.74-4.6-1.74z" fill="#424242"/></g><path d="M80.63,37l24,23.99c1.82,1.59,1.82,4.43,0,6.02L80.63,91C78.05,93.27,74,91.43,74,87.99V74 c0-1.1-0.9-2-2-2H26c-2.21,0-4-1.79-4-4v-8c0-2.21,1.79-4,4-4h46c1.1,0,2-0.9,2-2V40.01C74,36.57,78.05,34.73,80.63,37z" fill="#FAFAFA"/></svg>

<svg width="128" height="128" style="enable-background:new 0 0 128 128;" xmlns="http://www.w3.org/2000/svg" xmlns:xlink="http://www.w3.org/1999/xlink">
  <g>
    <linearGradient id="SVGID_1_" gradientUnits="userSpaceOnUse" x1="64" x2="64" y1="4.25" y2="124.4088">
      <stop offset="0" style="stop-color:#40C4FF"/>
      <stop offset="0.3517" style="stop-color:#2DB5F9"/>
      <stop offset="1" style="stop-color:#0091EA"/>
    </linearGradient>
    <path d="M116,124H12c-4.42,0-8-3.58-8-8V12c0-4.42,3.58-8,8-8h104c4.42,0,8,3.58,8,8v104 C124,120.42,120.42,124,116,124z" style="fill:url(#SVGID_1_);"/>
    <g style="opacity:0.2;">
      <path d="M116,7c2.76,0,5,2.24,5,5v104c0,2.76-2.24,5-5,5H12c-2.76,0-5-2.24-5-5V12c0-2.76,2.24-5,5-5H116 M116,4H12c-4.42,0-8,3.58-8,8v104c0,4.42,3.58,8,8,8h104c4.42,0,8-3.58,8-8V12C124,7.58,120.42,4,116,4L116,4z" style="fill:#424242;"/>
    </g>
    <g style="opacity:0.2;">
      <path d="M78.02,36c0.9,0,1.82,0.31,2.61,1l24,23.99c1.82,1.59,1.82,4.43,0,6.02L80.63,91 c-0.79,0.69-1.71,1-2.61,1C75.96,92,74,90.38,74,87.99V74c0-1.1-0.9-2-2-2H26c-2.21,0-4-1.79-4-4v-8c0-2.21,1.79-4,4-4h46 c1.1,0,2-0.9,2-2V40.01C74,37.62,75.96,36,78.02,36 M78.02,33L78.02,33C74.15,33,71,36.14,71,40.01V53H26c-3.86,0-7,3.14-7,7v8 c0,3.86,3.14,7,7,7h45v12.99c0,3.86,3.15,7.01,7.02,7.01c1.68,0,3.3-0.62,4.59-1.74l0.07-0.07l0.07-0.07l23.94-23.93 c1.47-1.33,2.31-3.21,2.31-5.19c0-1.98-0.84-3.87-2.31-5.19L82.76,34.88l-0.07-0.07l-0.07-0.07C81.33,33.62,79.7,33,78.02,33 L78.02,33z" style="fill:#424242;"/>
    </g>
    <path d="M80.63,37l24,23.99c1.82,1.59,1.82,4.43,0,6.02L80.63,91C78.05,93.27,74,91.43,74,87.99V74 c0-1.1-0.9-2-2-2H26c-2.21,0-4-1.79-4-4v-8c0-2.21,1.79-4,4-4h46c1.1,0,2-0.9,2-2V40.01C74,36.57,78.05,34.73,80.63,37z" style="fill:#FAFAFA;"/>
  </g>
</svg>
